packages/icons/src/gitops-yes.svg

<svg fill="none" height="64" viewBox="0 0 64 64" width="64" xmlns="http://www.w3.org/2000/svg"><path clip-rule="evenodd" d="m51 5c4.4183 0 8 3.58172 8 8v6c0 4.4183-3.5817 8-8 8h-14.8816l-4.3816 3 .7083-3h-2.4451c-4.4183 0-8-3.5817-8-8v-6c0-4.41828 3.5817-8 8-8z" fill="#fcc62d" fill-rule="evenodd"/><rect fill="#fedf76" height="23" rx="8" transform="matrix(-1 0 0 1 61 5)" width="35"/><path clip-rule="evenodd" d="m36.1116 26.5-4.1091 2.9128.4262-1.6648c.1619-.6325-.3159-1.248-.9688-1.248h-1.4599c-3.5899 0-6.5-2.9101-6.5-6.5v-8c0-3.58985 2.9101-6.5 6.5-6.5h24c3.5899 0 6.5 2.91015 6.5 6.5v8c0 3.5899-2.9101 6.5-6.5 6.5zm-6.1116 1.5c-4.4183 0-8-3.5817-8-8v-8c0-4.41828 3.5817-8 8-8h24c4.4183 0 8 3.58172 8 8v8c0 4.4183-3.5817 8-8 8h-17.4107l-4.8307 3.4244c-.7594.5383-1.7779-.162-1.5471-1.0638l.6043-2.3606z" fill="#000" fill-rule="evenodd"/><path d="m39.84 12.782c0 .168-.1447.4153-.434.742-.3453.392-1.246 1.596-2.702 3.612.0187 1.204.056 2.03.112 2.478.028.28.042.4807.042.602 0 .308-.056.518-.168.63-.1027.1027-.2847.154-.546.154-.196 0-.3827-.056-.56-.168-.168-.1213-.252-.266-.252-.434 0-.6813-.014-1.68-.042-2.996 0-.056-.0373-.1493-.112-.28s-.1213-.2147-.14-.252c-.196-.3453-.4433-.728-.742-1.148-.2893-.4293-.5413-.7513-.756-.966-.4107-.4107-.7327-.7793-.966-1.106-.2333-.336-.35-.574-.35-.714 0-.196.0887-.35.266-.462.1867-.1213.3873-.182.602-.182.1213 0 .2473.0327.378.098.14.0653.252.1587.336.28.5507.8213 1.0407 1.5027 1.47 2.044l.658.854c.4013-.4107.7513-.8167 1.05-1.218.308-.4107.644-.896 1.008-1.456l.238-.364c.1773-.2427.4527-.364.826-.364.1773 0 .35.0513.518.154.1773.1027.266.2567.266.462zm1.4607 5.25c0-.3547.0653-.7093.196-1.064.1307-.364.3033-.6953.518-.994s.5553-.5413 1.022-.728c.4667-.196.882-.294 1.246-.294.3733 0 .7513.0513 1.134.154.392.1027.6627.2613.812.476.3453.4853.518.9613.518 1.428 0 .252-.056.4667-.168.644-.1027.1773-.252.3687-.448.574-.1587.168-.4107.28-.756.336-.336.056-.672.084-1.008.084-.2147 0-.476-.0187-.784-.056-.308-.0467-.6067-.1027-.896-.168.0187.1867.0653.3687.14.546s.1633.3127.266.406c.1867.1773.378.2893.574.336.2053.0467.4667.07.784.07.336 0 .6487-.056.938-.168.2333-.084.4247-.126.574-.126.1773 0 .3127.056.406.168.0933.1027.14.238.14.406 0 .2333-.1353.4247-.406.574s-.5833.2613-.938.336c-.3453.0653-.6253.098-.84.098-.4387 0-.8633-.0793-1.274-.238s-.7513-.3827-1.022-.672c-.224-.2613-.4013-.574-.532-.938-.1307-.3733-.196-.77-.196-1.19zm3.052-1.89c-.2053 0-.4107.042-.616.126-.2053.0747-.3733.182-.504.322-.168.1773-.2847.322-.35.434-.056.1027-.0933.2473-.112.434.2333.0747.7187.112 1.456.112.4013 0 .7093-.0607.924-.182.224-.1213.336-.28.336-.476s-.1213-.3733-.364-.532-.4993-.238-.77-.238zm8.3519 1.708c.0746.0467.2193.1353.434.266.224.1213.3733.266.448.434.0746.168.112.4013.112.7 0 .336-.098.6347-.294.896-.196.252-.448.448-.756.588-.224.1027-.4994.182-.826.238-.3174.056-.5694.084-.756.084-.1867 0-.4294-.028-.728-.084-.2894-.056-.49-.1073-.602-.154-.2894-.168-.5414-.3733-.756-.616-.2054-.2427-.308-.49-.308-.742 0-.1867.0606-.3313.182-.434.1213-.112.28-.168.476-.168.0933 0 .1913.0373.294.112.1026.0653.1726.1353.21.21.1026.2427.2753.4247.518.546.2426.1213.49.182.742.182.3266 0 .63-.0513.91-.154.28-.112.42-.2613.42-.448 0-.084-.0234-.1493-.07-.196-.0374-.056-.0934-.112-.168-.168-.1307-.0933-.3267-.168-.588-.224-.2614-.0653-.4294-.1073-.504-.126-.3827-.084-.756-.21-1.12-.378-.364-.1773-.6534-.3873-.868-.63-.2147-.2427-.322-.5553-.322-.938 0-.252.0933-.5133.28-.784.1866-.28.3966-.476.63-.588.168-.0653.448-.1353.84-.21.4013-.0747.672-.112.812-.112.2146 0 .448.0233.7.07.252.0373.4433.1027.574.196.252.1493.4573.308.616.476.1586.1587.238.3407.238.546 0 .1027-.0234.2147-.07.336-.0467.112-.1027.182-.168.21-.14.0653-.3034.098-.49.098-.084 0-.154-.0233-.21-.07-.0467-.0467-.112-.1213-.196-.224-.1027-.1587-.2007-.252-.294-.28-.112-.028-.2754-.0607-.49-.098-.2147-.0467-.3594-.07-.434-.07-.2147 0-.4387.0607-.672.182-.224.1213-.336.2613-.336.42 0 .084.0326.1493.098.196.0746.0467.1493.0887.224.126.084.0373.14.0607.168.07.196.0933.4106.1727.644.238.2426.0653.392.1073.448.126.504.1213.84.238 1.008.35z" fill="#000"/><path clip-rule="evenodd" d="m18.6626 30.2148c-.6887-.966-2.1-.9031-2.7203.0845-.0355.0564-.0721.115-.1098.1755l-5.5807 4.9348c-.72766.6434-.76918 1.7647-.0911 2.4603l1.7151 1.7591c-.0019.0241-.0037.0481-.0053.072h-.0124v.3562 3.8161c0 .7375.4697 1.3653 1.1262 1.6007l-1.0713 1.0713c-.7487.655-1.6498.653-2.24705.6517l-.07699-.0001c-.97251 0-1.85698-.9349-1.77337-2.2394.03002-.4685-.32542-.8726-.7939-.9026s-.8726.3254-.90262.7939c-.13203 2.06 1.30456 4.0481 3.46989 4.0481.03059 0 .06519.0003.10352.0007.60052.0057 2.11332.0202 3.36842-1.098.0122-.0108.0241-.0221.0357-.0336l1.2968-1.2969.8958-.8958h1.1862v2.492c0 .4694.3806.85.85.85.4695 0 .85-.3806.85-.85v-2.492h1.1731l2.0128 2.0128c.0116.0115.0235.0228.0357.0336 1.2551 1.1182 2.7679 1.1037 3.3684 1.0979.0383-.0003.0729-.0007.1035-.0007 2.1654 0 3.6019-1.988 3.4699-4.048-.03-.4685-.4341-.824-.9026-.7939-.4685.03-.8239.4341-.7939.9026.0836 1.3045-.8009 2.2393-1.7734 2.2393l-.077.0002c-.5973.0013-1.4983.0033-2.2471-.6517l-.9105-.9105c.6299-.2489 1.0754-.8632 1.0754-1.5816v-3.8161-.2445l1.8631-1.9109c.6781-.6955.6365-1.8168-.0911-2.4603l-5.6663-5.0104c-.0528-.0754-.1038-.1475-.1528-.2163zm4.6929 6.5003-.9581.9827c-.2266-.9124-.5579-1.8111-.9316-2.6537zm-5.8193-5.1459-.1875-.1658-.2026.1792c-.6114.9926-1.4483 2.4277-2.1634 3.9231-.8313 1.7384-1.4246 3.4125-1.4246 4.5515v3.8161h6.1343.0164 1.3009v-3.8161c0-1.5452-.5889-3.2972-1.3808-4.9338-.6825-1.4106-1.4853-2.6741-2.0927-3.5542zm-5.2401 6.0557c.2826-.9059.6736-1.8388 1.0879-2.7156l-2.0061 1.7738zm7.4731 4.0444c0 .4401-.3568.7969-.7969.7969s-.7969-.3568-.7969-.7969.3568-.7968.7969-.7968.7969.3567.7969.7968zm-4.0906.7969c.4401 0 .7968-.3568.7968-.7969s-.3567-.7968-.7968-.7968-.7969.3567-.7969.7968.3568.7969.7969.7969zm.6964 10.7089c0-.4695.3806-.85.85-.85s.85.3805.85.85c0 .4694-.3806.85-.85.85s-.85-.3806-.85-.85zm.85-2.55c-1.4083 0-2.55 1.1416-2.55 2.55 0 1.4083 1.1417 2.55 2.55 2.55s2.55-1.1417 2.55-2.55c0-1.4084-1.1417-2.55-2.55-2.55zm10.6042 1.7c-.4694 0-.85.3805-.85.85 0 .4694.3806.85.85.85.4695 0 .85-.3806.85-.85 0-.4695-.3805-.85-.85-.85zm-2.55.85c0-1.4084 1.1417-2.55 2.55-2.55 1.4084 0 2.55 1.1416 2.55 2.55 0 1.4083-1.1416 2.55-2.55 2.55-1.4083 0-2.55-1.1417-2.55-2.55zm-19.95835 0c0-.4695.38056-.85.85-.85s.85.3805.85.85c0 .4694-.38056.85-.85.85s-.85-.3806-.85-.85zm.85-2.55c-1.40833 0-2.55 1.1416-2.55 2.55 0 1.4083 1.14167 2.55 2.55 2.55s2.55-1.1417 2.55-2.55c0-1.4084-1.14167-2.55-2.55-2.55z" fill="#4f5162" fill-rule="evenodd"/></svg>

<svg width="64" height="64" viewBox="0 0 64 64" fill="none" xmlns="http://www.w3.org/2000/svg">
<path fill-rule="evenodd" clip-rule="evenodd" d="M51 5C55.4183 5 59 8.58172 59 13V19C59 23.4183 55.4183 27 51 27H36.1184L31.7368 30L32.4451 27H30C25.5817 27 22 23.4183 22 19V13C22 8.58172 25.5817 5 30 5H51Z" fill="#FCC62D"/>
<rect width="35" height="23" rx="8" transform="matrix(-1 0 0 1 61 5)" fill="#FEDF76"/>
<path fill-rule="evenodd" clip-rule="evenodd" d="M36.1116 26.5L32.0025 29.4128L32.4287 27.748C32.5906 27.1155 32.1128 26.5 31.4599 26.5H30C26.4101 26.5 23.5 23.5899 23.5 20V12C23.5 8.41015 26.4101 5.5 30 5.5H54C57.5899 5.5 60.5 8.41015 60.5 12V20C60.5 23.5899 57.5899 26.5 54 26.5H36.1116ZM30 28C25.5817 28 22 24.4183 22 20V12C22 7.58172 25.5817 4 30 4H54C58.4183 4 62 7.58172 62 12V20C62 24.4183 58.4183 28 54 28H36.5893L31.7586 31.4244C30.9992 31.9627 29.9807 31.2624 30.2115 30.3606L30.8158 28H30Z" fill="black"/>
<path d="M39.84 12.782C39.84 12.95 39.6953 13.1973 39.406 13.524C39.0607 13.916 38.16 15.12 36.704 17.136C36.7227 18.34 36.76 19.166 36.816 19.614C36.844 19.894 36.858 20.0947 36.858 20.216C36.858 20.524 36.802 20.734 36.69 20.846C36.5873 20.9487 36.4053 21 36.144 21C35.948 21 35.7613 20.944 35.584 20.832C35.416 20.7107 35.332 20.566 35.332 20.398C35.332 19.7167 35.318 18.718 35.29 17.402C35.29 17.346 35.2527 17.2527 35.178 17.122C35.1033 16.9913 35.0567 16.9073 35.038 16.87C34.842 16.5247 34.5947 16.142 34.296 15.722C34.0067 15.2927 33.7547 14.9707 33.54 14.756C33.1293 14.3453 32.8073 13.9767 32.574 13.65C32.3407 13.314 32.224 13.076 32.224 12.936C32.224 12.74 32.3127 12.586 32.49 12.474C32.6767 12.3527 32.8773 12.292 33.092 12.292C33.2133 12.292 33.3393 12.3247 33.47 12.39C33.61 12.4553 33.722 12.5487 33.806 12.67C34.3567 13.4913 34.8467 14.1727 35.276 14.714L35.934 15.568C36.3353 15.1573 36.6853 14.7513 36.984 14.35C37.292 13.9393 37.628 13.454 37.992 12.894L38.23 12.53C38.4073 12.2873 38.6827 12.166 39.056 12.166C39.2333 12.166 39.406 12.2173 39.574 12.32C39.7513 12.4227 39.84 12.5767 39.84 12.782ZM41.3007 18.032C41.3007 17.6773 41.366 17.3227 41.4967 16.968C41.6274 16.604 41.8 16.2727 42.0147 15.974C42.2294 15.6753 42.57 15.4327 43.0367 15.246C43.5034 15.05 43.9187 14.952 44.2827 14.952C44.656 14.952 45.034 15.0033 45.4167 15.106C45.8087 15.2087 46.0794 15.3673 46.2287 15.582C46.574 16.0673 46.7467 16.5433 46.7467 17.01C46.7467 17.262 46.6907 17.4767 46.5787 17.654C46.476 17.8313 46.3267 18.0227 46.1307 18.228C45.972 18.396 45.72 18.508 45.3747 18.564C45.0387 18.62 44.7027 18.648 44.3667 18.648C44.152 18.648 43.8907 18.6293 43.5827 18.592C43.2747 18.5453 42.976 18.4893 42.6867 18.424C42.7054 18.6107 42.752 18.7927 42.8267 18.97C42.9014 19.1473 42.99 19.2827 43.0927 19.376C43.2794 19.5533 43.4707 19.6653 43.6667 19.712C43.872 19.7587 44.1334 19.782 44.4507 19.782C44.7867 19.782 45.0994 19.726 45.3887 19.614C45.622 19.53 45.8134 19.488 45.9627 19.488C46.14 19.488 46.2754 19.544 46.3687 19.656C46.462 19.7587 46.5087 19.894 46.5087 20.062C46.5087 20.2953 46.3734 20.4867 46.1027 20.636C45.832 20.7853 45.5194 20.8973 45.1647 20.972C44.8194 21.0373 44.5394 21.07 44.3247 21.07C43.886 21.07 43.4614 20.9907 43.0507 20.832C42.64 20.6733 42.2994 20.4493 42.0287 20.16C41.8047 19.8987 41.6274 19.586 41.4967 19.222C41.366 18.8487 41.3007 18.452 41.3007 18.032ZM44.3527 16.142C44.1474 16.142 43.942 16.184 43.7367 16.268C43.5314 16.3427 43.3634 16.45 43.2327 16.59C43.0647 16.7673 42.948 16.912 42.8827 17.024C42.8267 17.1267 42.7894 17.2713 42.7707 17.458C43.004 17.5327 43.4894 17.57 44.2267 17.57C44.628 17.57 44.936 17.5093 45.1507 17.388C45.3747 17.2667 45.4867 17.108 45.4867 16.912C45.4867 16.716 45.3654 16.5387 45.1227 16.38C44.88 16.2213 44.6234 16.142 44.3527 16.142ZM52.7046 17.85C52.7792 17.8967 52.9239 17.9853 53.1386 18.116C53.3626 18.2373 53.5119 18.382 53.5866 18.55C53.6612 18.718 53.6986 18.9513 53.6986 19.25C53.6986 19.586 53.6006 19.8847 53.4046 20.146C53.2086 20.398 52.9566 20.594 52.6486 20.734C52.4246 20.8367 52.1492 20.916 51.8226 20.972C51.5052 21.028 51.2532 21.056 51.0666 21.056C50.8799 21.056 50.6372 21.028 50.3386 20.972C50.0492 20.916 49.8486 20.8647 49.7366 20.818C49.4472 20.65 49.1952 20.4447 48.9806 20.202C48.7752 19.9593 48.6726 19.712 48.6726 19.46C48.6726 19.2733 48.7332 19.1287 48.8546 19.026C48.9759 18.914 49.1346 18.858 49.3306 18.858C49.4239 18.858 49.5219 18.8953 49.6246 18.97C49.7272 19.0353 49.7972 19.1053 49.8346 19.18C49.9372 19.4227 50.1099 19.6047 50.3526 19.726C50.5952 19.8473 50.8426 19.908 51.0946 19.908C51.4212 19.908 51.7246 19.8567 52.0046 19.754C52.2846 19.642 52.4246 19.4927 52.4246 19.306C52.4246 19.222 52.4012 19.1567 52.3546 19.11C52.3172 19.054 52.2612 18.998 52.1866 18.942C52.0559 18.8487 51.8599 18.774 51.5986 18.718C51.3372 18.6527 51.1692 18.6107 51.0946 18.592C50.7119 18.508 50.3386 18.382 49.9746 18.214C49.6106 18.0367 49.3212 17.8267 49.1066 17.584C48.8919 17.3413 48.7846 17.0287 48.7846 16.646C48.7846 16.394 48.8779 16.1327 49.0646 15.862C49.2512 15.582 49.4612 15.386 49.6946 15.274C49.8626 15.2087 50.1426 15.1387 50.5346 15.064C50.9359 14.9893 51.2066 14.952 51.3466 14.952C51.5612 14.952 51.7946 14.9753 52.0466 15.022C52.2986 15.0593 52.4899 15.1247 52.6206 15.218C52.8726 15.3673 53.0779 15.526 53.2366 15.694C53.3952 15.8527 53.4746 16.0347 53.4746 16.24C53.4746 16.3427 53.4512 16.4547 53.4046 16.576C53.3579 16.688 53.3019 16.758 53.2366 16.786C53.0966 16.8513 52.9332 16.884 52.7466 16.884C52.6626 16.884 52.5926 16.8607 52.5366 16.814C52.4899 16.7673 52.4246 16.6927 52.3406 16.59C52.2379 16.4313 52.1399 16.338 52.0466 16.31C51.9346 16.282 51.7712 16.2493 51.5566 16.212C51.3419 16.1653 51.1972 16.142 51.1226 16.142C50.9079 16.142 50.6839 16.2027 50.4506 16.324C50.2266 16.4453 50.1146 16.5853 50.1146 16.744C50.1146 16.828 50.1472 16.8933 50.2126 16.94C50.2872 16.9867 50.3619 17.0287 50.4366 17.066C50.5206 17.1033 50.5766 17.1267 50.6046 17.136C50.8006 17.2293 51.0152 17.3087 51.2486 17.374C51.4912 17.4393 51.6406 17.4813 51.6966 17.5C52.2006 17.6213 52.5366 17.738 52.7046 17.85Z" fill="black"/>
<path fill-rule="evenodd" clip-rule="evenodd" d="M18.6626 30.2148C17.9739 29.2488 16.5626 29.3117 15.9423 30.2993C15.9068 30.3557 15.8702 30.4143 15.8325 30.4748L10.2518 35.4096C9.52414 36.053 9.48262 37.1743 10.1607 37.8699L11.8758 39.629C11.8739 39.6531 11.8721 39.6771 11.8705 39.701H11.8581V40.0572V43.8733C11.8581 44.6108 12.3278 45.2386 12.9843 45.474L11.913 46.5453C11.1643 47.2003 10.2632 47.1983 9.66595 47.197L9.58896 47.1969C8.61645 47.1969 7.73198 46.262 7.81559 44.9575C7.84561 44.489 7.49017 44.0849 7.02169 44.0549C6.55321 44.0249 6.14909 44.3803 6.11907 44.8488C5.98704 46.9088 7.42363 48.8969 9.58896 48.8969C9.61955 48.8969 9.65415 48.8972 9.69248 48.8976C10.293 48.9033 11.8058 48.9178 13.0609 47.7996C13.0731 47.7888 13.085 47.7775 13.0966 47.766L14.3934 46.4691L14.3934 46.4691L15.2892 45.5733H16.4754V48.0653C16.4754 48.5347 16.856 48.9153 17.3254 48.9153C17.7949 48.9153 18.1754 48.5347 18.1754 48.0653V45.5733H19.3485L21.3613 47.5861C21.3729 47.5976 21.3848 47.6089 21.397 47.6197C22.6521 48.7379 24.1649 48.7234 24.7654 48.7176C24.8037 48.7173 24.8383 48.7169 24.8689 48.7169C27.0343 48.7169 28.4708 46.7289 28.3388 44.6689C28.3088 44.2004 27.9047 43.8449 27.4362 43.875C26.9677 43.905 26.6123 44.3091 26.6423 44.7776C26.7259 46.0821 25.8414 47.0169 24.8689 47.0169L24.7919 47.0171C24.1946 47.0184 23.2936 47.0204 22.5448 46.3654L21.6343 45.4549C22.2642 45.206 22.7097 44.5917 22.7097 43.8733V40.0572V39.8127L24.5728 37.9018C25.2509 37.2063 25.2093 36.085 24.4817 35.4415L18.8154 30.4311C18.7626 30.3557 18.7116 30.2836 18.6626 30.2148ZM23.3555 36.7151L22.3974 37.6978C22.1708 36.7854 21.8395 35.8867 21.4658 35.0441L23.3555 36.7151ZM17.5362 31.5692L17.3487 31.4034L17.1461 31.5826C16.5347 32.5752 15.6978 34.0103 14.9827 35.5057C14.1514 37.2441 13.5581 38.9182 13.5581 40.0572V43.8733L19.6924 43.8733H19.7088H21.0097V40.0572C21.0097 38.512 20.4208 36.76 19.6289 35.1234C18.9464 33.7128 18.1436 32.4493 17.5362 31.5692ZM12.2961 37.6249C12.5787 36.719 12.9697 35.7861 13.384 34.9093L11.3779 36.6831L12.2961 37.6249ZM19.7692 41.6693C19.7692 42.1094 19.4124 42.4662 18.9723 42.4662C18.5322 42.4662 18.1754 42.1094 18.1754 41.6693C18.1754 41.2292 18.5322 40.8725 18.9723 40.8725C19.4124 40.8725 19.7692 41.2292 19.7692 41.6693ZM15.6786 42.4662C16.1187 42.4662 16.4754 42.1094 16.4754 41.6693C16.4754 41.2292 16.1187 40.8725 15.6786 40.8725C15.2385 40.8725 14.8817 41.2292 14.8817 41.6693C14.8817 42.1094 15.2385 42.4662 15.6786 42.4662ZM16.375 53.1751C16.375 52.7056 16.7556 52.3251 17.225 52.3251C17.6944 52.3251 18.075 52.7056 18.075 53.1751C18.075 53.6445 17.6944 54.0251 17.225 54.0251C16.7556 54.0251 16.375 53.6445 16.375 53.1751ZM17.225 50.6251C15.8167 50.6251 14.675 51.7667 14.675 53.1751C14.675 54.5834 15.8167 55.7251 17.225 55.7251C18.6333 55.7251 19.775 54.5834 19.775 53.1751C19.775 51.7667 18.6333 50.6251 17.225 50.6251ZM27.8292 52.3251C27.3598 52.3251 26.9792 52.7056 26.9792 53.1751C26.9792 53.6445 27.3598 54.0251 27.8292 54.0251C28.2987 54.0251 28.6792 53.6445 28.6792 53.1751C28.6792 52.7056 28.2987 52.3251 27.8292 52.3251ZM25.2792 53.1751C25.2792 51.7667 26.4209 50.6251 27.8292 50.6251C29.2376 50.6251 30.3792 51.7667 30.3792 53.1751C30.3792 54.5834 29.2376 55.7251 27.8292 55.7251C26.4209 55.7251 25.2792 54.5834 25.2792 53.1751ZM5.32085 53.1751C5.32085 52.7056 5.70141 52.3251 6.17085 52.3251C6.64029 52.3251 7.02085 52.7056 7.02085 53.1751C7.02085 53.6445 6.64029 54.0251 6.17085 54.0251C5.70141 54.0251 5.32085 53.6445 5.32085 53.1751ZM6.17085 50.6251C4.76252 50.6251 3.62085 51.7667 3.62085 53.1751C3.62085 54.5834 4.76252 55.7251 6.17085 55.7251C7.57918 55.7251 8.72085 54.5834 8.72085 53.1751C8.72085 51.7667 7.57918 50.6251 6.17085 50.6251Z" fill="#4F5162"/>
</svg>
